X: 10460
T: Donegal, The
R: reel
M: 4/4
K: Dmajor
|:defg afdg|fdfg bagf|e=cef (3gag fg|ecef (3gagfe|
defg afdf|afdf abag|((3fgf) ((3efe) dBAG|1 FGEF D3A:|2 FGEF D2||

